X: 80
T: No_41_War_Bundle_Dance_Song_(b).krn
N: Derived from No_41_War_Bundle_Dance_Song_(b).krn
%%abc-version 2.0
%%abcx-abcm2ps-target-version 5.9.1 (29 Sep 2008)
%%abc-creator hum2abc beta
%%abcx-conversion-date 2019/03/15 08:35:44
%%humdrum-veritas 1685731397
%%humdrum-veritas-data 1576635844
%%linebreak <none>
%%barnumbers 0
L: 1/8
M: 5/8
K: Bb clef=bass
[K:clef=bass][M:5/8]CCDC/C/B, | 
B,4G, | 
G,G,F,F,/F,/F, | 
F,2F,F, z | 
B,B,CB,/B,/G, | 
G,4F, | 
F,G,G,F,/F,/F, | 
F,3z F, | 
F,D,D,C,/C,/C, | 
B,,4z | 
D,D,D,B,,/B,,/B,, | 
B,,4z |]  



